X: 41183
T: Tripping Up The Stairs
R: jig
M: 6/8
K: Dmajor
|:FAA GBB|FAd fed|cBc ABc|dfe dAG|
FAA GBB|FAd fed|cBc ABc|1 dfe d2A:|2 dfe d2c||
|:dBB fBB|agf fed|cAA eAA|gfe e2c|
dBB fBB|agf fed|cBc ABc|1 dfe d2c:|2 dfe d2A||

